X:96
T:Tripping Up the Stairs
M:6/8
L:1/8
R:jig
K:D
A|FAA GBB|FAd fed|cBc ABc|dfe d2A|
FAA GBB|FAd fed|cBc ABc|dfe d2:|
c|dBB fBB|fgf fed|cAA eAA|efe edc|
dBB fBB|fgf fed|cBc ABc|dfe d2:|
